src/lib/packages/icons/src/assets/filled/chat-info.svg

<svg width="24" height="24" viewBox="0 0 24 24" fill="none" xmlns="http://www.w3.org/2000/svg">
<path d="M12.001 3C7.031 3 3.00197 7.02902 3.00197 11.999C3.00197 13.339 3.30205 14.619 3.83205 15.758C4.04205 16.198 4.04211 16.708 3.89211 17.178L3.05202 19.678C2.79202 20.458 3.54204 21.208 4.32204 20.948L6.82204 20.108C7.29204 19.958 7.80196 19.958 8.24196 20.168C9.38196 20.698 10.662 20.998 12.002 20.998C16.972 20.998 21.001 16.969 21.001 11.999C21 7.02902 16.971 3 12.001 3ZM12.75 15C12.75 15.414 12.414 15.75 12 15.75C11.586 15.75 11.25 15.414 11.25 15V12C11.25 11.586 11.586 11.25 12 11.25C12.414 11.25 12.75 11.586 12.75 12V15ZM12.02 10C11.468 10 11.0149 9.552 11.0149 9C11.0149 8.448 11.458 8 12.01 8H12.02C12.573 8 13.02 8.448 13.02 9C13.02 9.552 12.572 10 12.02 10Z" fill="currentColor"/>
</svg>

<svg xmlns="http://www.w3.org/2000/svg" width="24" height="24" fill="none"><path fill="currentColor" d="M12.001 3a9 9 0 0 0-8.999 8.999c0 1.34.3 2.62.83 3.759.21.44.21.95.06 1.42l-.84 2.5c-.26.78.49 1.53 1.27 1.27l2.5-.84c.47-.15.98-.15 1.42.06 1.14.53 2.42.83 3.76.83A8.999 8.999 0 1 0 12.001 3Zm.749 12a.75.75 0 0 1-1.5 0v-3a.75.75 0 0 1 1.5 0v3Zm-.73-5a1.005 1.005 0 0 1-1.005-1c0-.552.443-1 .995-1h.01a1 1 0 1 1 0 2Z"/></svg>
